X: 1929
T: Vardım Hind Eline Kumaş Getirdim
C: Turan Engin
O: Turkey
F: http://compmusic.upf.edu/node/140
N: muhayyer--turku--turkaksagi--vardim_hind--erzincan
N: makam= muhayyer
N: form= turku
N: usul= turkaksagi = 5/8
M: 5/8
L: 1/16
K: C _2/4B ^3/4f  
Q: 1/4=144
%%MIDI tuningsystem comma53
e2e2 d2{e}c4 | e3dd6  | d4 c2B4 | d3Bc4B2  | \
w:  ARANAĞME  |   |   |   | 
c2c2 B2A4 | c4B4A2  | 
w:   |   | 
B4 B2A4 | B2 {c}A2A6  | A4 A6 | A4A6  | e2e2 d2{e}c4 | \
w:   |   |   |   |  ARANAĞME  | 
e3dd6  | d4 c2B4 | d3Bc4B2  | 
w:   |   |   | 
c2c2 B2A4 | c4B4A2  | B4 B2A4 | B2 {c}A2A6  | \
w:   |   |   |   | 
A4 A6 | A2 Bcde =fga2  | 
w:   |   | 
f2g2 a2a4 | a2 baa6  | a2{c'}ba a2a4 | a4gf g2z2  | \
w:  Var dım  Hind_ e  |  li *  *  ne   |  ku *  *  *  maş  ge  |  tir dim    | 
f2g2 a2a4 | 
w:  Var dım  Hind_ e  | 
a2 baa6  | a2{c'}ba a2a4 | a4gf g2z2  | \
w:  li *  *  ne   |  ku *  *  *  maş  ge  |  tir dim    | 
g2g2 g2f4 | g4{a}f6  | f3g e2e4 | 
w:  Aç tım  be des  |  ta *  nı   |  sat *  tım_ o  | 
f3ge4d2  | e2f2 g2f2 e2 | g2 a2f6  | f2g2 e2e2 d2 | \
w:  tur *  dum    |  Sen  be nim  ba  |  şı *  ma   |  ne *  ler  ge  | 
gf g2e4d2  | 
w:  tir *  *  din    | 
e2e2 d2c4 | e3dd6  | d4 c2B4 | d3Bc4B2  | c2c2 B2A4 | \
w:  Ben  se nin  kah  |  rı *  nı   |  çe ke mem   |  gö *  nül    |  Ben  se nin  der  | 
c4B4A2  | 
w:  di ni   | 
B4 B2A4 | B2 {c}A2A6  | A4 A6 | A4A6  | e2e2 d2{e}c4 | \
w:  çe ke mem   |  gö *  *  nül    |   |   |  ARANAĞME  | 
e3dd6  | d4 c2B4 | d3Bc4B2  | 
w:   |   |   | 
c2c2 B2A4 | c4B4A2  | B4 B2A4 | B2 {c}A2A6  | \
w:   |   |   |   | 
A4 A6 | A4A6  | e2e2 d2{e}c4 | 
w:   |   |  ARANAĞME  | 
e3dd6  | d4 c2B4 | d3Bc4B2  | c2c2 B2A4 | c4B4A2  | \
w:   |   |   |   |   | 
B4 B2A4 | B2 {c}A2A6  | 
w:   |   | 
A4 A6 | A2 Bcde =fga2  | f2g2 a2a4 | a2 baa6  | \
w:   |   |  Var dım  Hind_ e  |  li *  *  ne   | 
a2{c'}ba a2a4 | 
w:  ku *  *  *  maş  ge  | 
a4gf g2z2  | f2g2 a2a4 | a2 baa6  | a2{c'}ba a2a4 | \
w:  tir dim    |  Var dım  Hind_ e  |  li *  *  ne   |  ku *  *  *  maş  ge  | 
a4gf g2z2  | 
w:  tir dim    | 
g2g2 g2f4 | g4{a}f6  | f3g e2e4 | f3ge4d2  | \
w:  Aç tım  be des  |  ta *  nı   |  sat *  tım_ o  |  tur *  dum    | 
e2f2 g2f2 e2 | g2 a2f6  | 
w:  Sen  be nim  ba  |  şı *  ma   | 
f2g2 e2e2 d2 | gf g2e4d2  | e2e2 d2c4 | \
w:  ne *  ler  ge  |  tir *  *  din    |  Ben  se nin  kah  | 
e3dd6  | d4 c2B4 | d3Bc4B2  | 
w:  rı *  nı   |  çe ke mem   |  gö *  nül    | 
c2c2 B2A4 | c4B4A2  | B4 B2A4 | B2 {c}A2A6  | \
w:  Ben  se nin  der  |  di ni   |  çe ke mem   |  gö *  *  nül    | 
A4 A6 | A4A6  | |


